TV/Source/213 HD.svg

<svg height="2.675482mm" viewBox="0 0 3.7464159 2.6754816" width="3.746416mm" xmlns="http://www.w3.org/2000/svg" xmlns:xlink="http://www.w3.org/1999/xlink"><clipPath id="a"><path d="m374.544 395.379h10.632v7.762h-10.632z"/></clipPath><clipPath id="b"><path d="m382.25785 395.37923v7.76101h-7.71364v-7.76101z"/></clipPath><linearGradient id="c" gradientTransform="matrix(0 7.5839007 -7.5839007 0 378.39849 395.55921)" gradientUnits="userSpaceOnUse" spreadMethod="pad" x1="0" x2="1" y1="0" y2="0"><stop offset="0" stop-color="#00437d"/><stop offset="1" stop-color="#0aa5c4"/></linearGradient><g clip-path="url(#b)" transform="matrix(.35277777 0 0 -.35277777 -132.13511 142.218915)"><path d="m378.129 403.141c-.106-.002-.207-.042-.285-.114l-1.1-1.012c-.045-.04-.043-.11.002-.149l.698-.624c.052-.046.132-.046.184.001l.339.306v-3.862h-1.709c.328.711 1.358 1.125 1.358 2.034 0 .586-.475 1.463-1.492 1.463-.946 0-1.313-.677-1.452-1.067-.027-.078.018-.161.097-.184l.804-.217c.061-.016.13.005.159.06.231.44.721.21.721-.149 0-.473-1.437-1.007-1.894-2.885-.015-.063.033-.125.098-.125h3.439c-.102.288-.132.477-.132.738 0 .591.247 1.184.633 1.588h1.686l-.489-1.029c.162 0 .666.003.666.003.429 0 .54-.447.54-.565 0-.406-.329-.735-.735-.735-.195 0-.371.076-.503.2-.062.058-.156.062-.226.013l-.62-.444c-.064-.046-.074-.132-.023-.193.462-.547 1.247-.814 2.062-.508.451.169.808.526.977.976.326.87.001 1.704-.622 2.151l.465.979c.049.103-.026.224-.142.224h-1.998l-.48-.497v3.434c0 .103-.083.187-.186.189z" fill="url(#c)"/></g><path d="m0 0v-.67h-.687v.67h-.371v-1.692h.371v.679h.687v-.679h.373v1.692z" fill="#1095b9" transform="matrix(.35277777 0 0 -.35277777 2.92146 .005269)"/><g clip-path="url(#a)" transform="matrix(.35277777 0 0 -.35277777 -132.13511 142.218915)"><g transform="translate(384.2766 401.7691)"><path d="m0 0c .076 0 .145.012.208.036s.116.059.161.104c.044.045.079.099.104.16s.037.13.037.205v.005c0 .074-.012.143-.037.206s-.06.117-.104.162c-.045.045-.098.08-.161.105s-.132.037-.208.037h-.288v-1.02zm-.66 1.357h.66c.132 0 .253-.022.364-.065.11-.042.205-.102.285-.177.08-.076.142-.165.185-.267.044-.103.066-.214.066-.333v-.005c0-.119-.022-.23-.066-.334-.043-.103-.105-.192-.185-.268s-.175-.135-.285-.179c-.111-.043-.232-.065-.364-.065h-.66z" fill="#1095b9"/></g></g></svg>

<?xml version="1.0" encoding="UTF-8" standalone="no"?>
<!-- Created with Inkscape (http://www.inkscape.org/) -->

<svg
   xmlns:dc="http://purl.org/dc/elements/1.1/"
   xmlns:cc="http://creativecommons.org/ns#"
   xmlns:rdf="http://www.w3.org/1999/02/22-rdf-syntax-ns#"
   xmlns:svg="http://www.w3.org/2000/svg"
   xmlns="http://www.w3.org/2000/svg"
   xmlns:sodipodi="http://sodipodi.sourceforge.net/DTD/sodipodi-0.dtd"
   xmlns:inkscape="http://www.inkscape.org/namespaces/inkscape"
   width="3.7464159mm"
   height="2.6754816mm"
   viewBox="0 0 3.7464159 2.6754816"
   version="1.1"
   id="svg42802"
   inkscape:version="0.92.0 r15299"
   sodipodi:docname="213 HD.svg">
  <defs
     id="defs42796">
    <clipPath
       clipPathUnits="userSpaceOnUse"
       id="clipPath23764">
      <path
         d="m 374.544,395.379 h 10.632 v 7.762 h -10.632 z"
         id="path23762"
         inkscape:connector-curvature="0" />
    </clipPath>
    <clipPath
       clipPathUnits="userSpaceOnUse"
       id="clipPath23744">
      <path
         d="m 382.25785,395.37923 v 7.76101 h -7.71364 v -7.76101 z"
         id="path23742"
         inkscape:connector-curvature="0" />
    </clipPath>
    <linearGradient
       x1="0"
       y1="0"
       x2="1"
       y2="0"
       gradientUnits="userSpaceOnUse"
       gradientTransform="matrix(0,7.5839007,-7.5839007,0,378.39849,395.55921)"
       spreadMethod="pad"
       id="linearGradient23750">
      <stop
         style="stop-opacity:1;stop-color:#00437d"
         offset="0"
         id="stop23746" />
      <stop
         style="stop-opacity:1;stop-color:#0aa5c4"
         offset="1"
         id="stop23748" />
    </linearGradient>
  </defs>
  <sodipodi:namedview
     id="base"
     pagecolor="#ffffff"
     bordercolor="#666666"
     borderopacity="1.0"
     inkscape:pageopacity="0.0"
     inkscape:pageshadow="2"
     inkscape:zoom="31.678384"
     inkscape:cx="1.7181941"
     inkscape:cy="5.1345132"
     inkscape:document-units="mm"
     inkscape:current-layer="layer1"
     showgrid="false"
     fit-margin-top="0"
     fit-margin-left="0"
     fit-margin-right="0"
     fit-margin-bottom="0"
     inkscape:window-width="1920"
     inkscape:window-height="1017"
     inkscape:window-x="-8"
     inkscape:window-y="-8"
     inkscape:window-maximized="1" />
  <metadata
     id="metadata42799">
    <rdf:RDF>
      <cc:Work
         rdf:about="">
        <dc:format>image/svg+xml</dc:format>
        <dc:type
           rdf:resource="http://purl.org/dc/dcmitype/StillImage" />
        <dc:title></dc:title>
      </cc:Work>
    </rdf:RDF>
  </metadata>
  <g
     inkscape:label="Layer 1"
     inkscape:groupmode="layer"
     id="layer1"
     transform="translate(158.35536,-73.412255)">
    <g
       transform="matrix(0.35277777,0,0,-0.35277777,-290.49047,215.63117)"
       id="g23728">
      <g
         id="g23730">
        <g
           id="g23736">
          <g
             id="g23738">
            <g
               id="g23740"
               clip-path="url(#clipPath23744)">
              <path
                 d="m 378.129,403.141 c -0.106,-0.002 -0.207,-0.042 -0.285,-0.114 v 0 l -1.1,-1.012 c -0.045,-0.04 -0.043,-0.11 0.002,-0.149 v 0 l 0.698,-0.624 c 0.052,-0.046 0.132,-0.046 0.184,10e-4 v 0 l 0.339,0.306 v -3.862 h -1.709 c 0.328,0.711 1.358,1.125 1.358,2.034 v 0 c 0,0.586 -0.475,1.463 -1.492,1.463 v 0 c -0.946,0 -1.313,-0.677 -1.452,-1.067 v 0 c -0.027,-0.078 0.018,-0.161 0.097,-0.184 v 0 l 0.804,-0.217 c 0.061,-0.016 0.13,0.005 0.159,0.06 v 0 c 0.231,0.44 0.721,0.21 0.721,-0.149 v 0 c 0,-0.473 -1.437,-1.007 -1.894,-2.885 v 0 c -0.015,-0.063 0.033,-0.125 0.098,-0.125 v 0 h 3.439 c -0.102,0.288 -0.132,0.477 -0.132,0.738 v 0 c 0,0.591 0.247,1.184 0.633,1.588 v 0 h 1.686 l -0.489,-1.029 c 0.162,0 0.666,0.003 0.666,0.003 v 0 c 0.429,0 0.54,-0.447 0.54,-0.565 v 0 c 0,-0.406 -0.329,-0.735 -0.735,-0.735 v 0 c -0.195,0 -0.371,0.076 -0.503,0.2 v 0 c -0.062,0.058 -0.156,0.062 -0.226,0.013 v 0 l -0.62,-0.444 c -0.064,-0.046 -0.074,-0.132 -0.023,-0.193 v 0 c 0.462,-0.547 1.247,-0.814 2.062,-0.508 v 0 c 0.451,0.169 0.808,0.526 0.977,0.976 v 0 c 0.326,0.87 10e-4,1.704 -0.622,2.151 v 0 l 0.465,0.979 c 0.049,0.103 -0.026,0.224 -0.142,0.224 v 0 h -1.998 l -0.48,-0.497 v 3.434 c 0,0.103 -0.083,0.187 -0.186,0.189 v 0 z"
                 style="fill:url(#linearGradient23750);stroke:none"
                 id="path23752"
                 inkscape:connector-curvature="0" />
            </g>
          </g>
        </g>
      </g>
    </g>
    <g
       id="g23754"
       transform="matrix(0.35277777,0,0,-0.35277777,-155.4339,73.417524)">
      <path
         d="M 0,0 V -0.67 H -0.687 V 0 h -0.371 v -1.692 h 0.371 v 0.679 H 0 V -1.692 H 0.373 V 0 Z"
         style="fill:#1095b9;fill-opacity:1;fill-rule:nonzero;stroke:none"
         id="path23756"
         inkscape:connector-curvature="0" />
    </g>
    <g
       transform="matrix(0.35277777,0,0,-0.35277777,-290.49047,215.63117)"
       id="g23758">
      <g
         id="g23760"
         clip-path="url(#clipPath23764)">
        <g
           id="g23766"
           transform="translate(384.2766,401.7691)">
          <path
             d="M 0,0 C 0.076,0 0.145,0.012 0.208,0.036 0.271,0.06 0.324,0.095 0.369,0.14 0.413,0.185 0.448,0.239 0.473,0.3 0.498,0.361 0.51,0.43 0.51,0.505 V 0.51 C 0.51,0.584 0.498,0.653 0.473,0.716 0.448,0.779 0.413,0.833 0.369,0.878 0.324,0.923 0.271,0.958 0.208,0.983 0.145,1.008 0.076,1.02 0,1.02 H -0.288 V 0 Z M -0.66,1.357 H 0 C 0.132,1.357 0.253,1.335 0.364,1.292 0.474,1.25 0.569,1.19 0.649,1.115 0.729,1.039 0.791,0.95 0.834,0.848 0.878,0.745 0.9,0.634 0.9,0.515 V 0.51 C 0.9,0.391 0.878,0.28 0.834,0.176 0.791,0.073 0.729,-0.016 0.649,-0.092 0.569,-0.168 0.474,-0.227 0.364,-0.271 0.253,-0.314 0.132,-0.336 0,-0.336 h -0.66 z"
             style="fill:#1095b9;fill-opacity:1;fill-rule:nonzero;stroke:none"
             id="path23768"
             inkscape:connector-curvature="0" />
        </g>
      </g>
    </g>
  </g>
</svg>
